src/assets/duotone/SmsNotification.svg

<svg width="24" height="24" viewBox="0 0 24 24"  xmlns="http://www.w3.org/2000/svg">
<path d="M19.5 8C20.8807 8 22 6.88071 22 5.5C22 4.11929 20.8807 3 19.5 3C18.1193 3 17 4.11929 17 5.5C17 6.88071 18.1193 8 19.5 8Z" />
<path d="M19.5 8C20.8807 8 22 6.88071 22 5.5C22 4.11929 20.8807 3 19.5 3C18.1193 3 17 4.11929 17 5.5C17 6.88071 18.1193 8 19.5 8Z" />
<path opacity="0.4" d="M20.72 9.30977C21.35 9.10977 22 9.59978 22 10.2698V15.5098C22 19.0098 20 20.5098 17 20.5098H7C4 20.5098 2 19.0098 2 15.5098V8.50977C2 5.00977 4 3.50977 7 3.50977H14.61C15.26 3.50977 15.7 4.10978 15.58 4.73978C15.46 5.32978 15.48 5.95977 15.66 6.60977C16.03 7.94977 17.12 9.01977 18.46 9.36977C19.25 9.56977 20.02 9.52977 20.72 9.30977Z" />
<path d="M11.9998 12.8698C11.1598 12.8698 10.3098 12.6098 9.65978 12.0798L6.52978 9.57978C6.20978 9.31978 6.14978 8.84978 6.40978 8.52978C6.66978 8.20978 7.13977 8.14978 7.45977 8.40978L10.5898 10.9098C11.3498 11.5198 12.6398 11.5198 13.3998 10.9098L14.5798 9.96978C14.8998 9.70978 15.3798 9.75977 15.6298 10.0898C15.8898 10.4098 15.8398 10.8898 15.5098 11.1398L14.3298 12.0798C13.6898 12.6098 12.8398 12.8698 11.9998 12.8698Z" />
</svg>

<?xml version="1.0" encoding="UTF-8"?>
<svg width="24" height="24" viewBox="0 0 24 24" xmlns="http://www.w3.org/2000/svg">
 <path d="m19.5 8c1.3807 0 2.5-1.1193 2.5-2.5s-1.1193-2.5-2.5-2.5-2.5 1.1193-2.5 2.5 1.1193 2.5 2.5 2.5z"/>
 <path d="m19.5 8c1.3807 0 2.5-1.1193 2.5-2.5s-1.1193-2.5-2.5-2.5-2.5 1.1193-2.5 2.5 1.1193 2.5 2.5 2.5z"/>
 <path d="m20.72 9.3098c0.63-0.2 1.28 0.29001 1.28 0.96003v5.24c0 3.5-2 5-5 5h-10c-3 0-5-1.5-5-5v-7c0-3.5 2-5 5-5h7.61c0.65 0 1.09 0.60001 0.97 1.23-0.12 0.59-0.1 1.22 0.08 1.87 0.37 1.34 1.46 2.41 2.8 2.76 0.79 0.2 1.56 0.16 2.26-0.06z" opacity=".4"/>
 <path d="m12 12.87c-0.84 0-1.69-0.26-2.34-0.79l-3.13-2.5c-0.32-0.26-0.38-0.73-0.12-1.05s0.72999-0.38 1.05-0.12l3.13 2.5c0.76 0.61 2.05 0.61 2.81 0l1.18-0.94002c0.32-0.26 0.8-0.21001 1.05 0.12002 0.26 0.32 0.21 0.8-0.12 1.05l-1.18 0.94c-0.64 0.53-1.49 0.79-2.33 0.79z"/>
</svg>
